assets/frameup.svg

<svg width='377' height='35' viewBox='0 0 377 35' fill='none' xmlns='http://www.w3.org/2000/svg'><path d='M1 8.75H11.5858C12.0499 8.75 12.495 8.56563 12.8232 8.23744L20.2374 0.823223C20.2843 0.776339 20.3479 0.75 20.4142 0.75H356.586C356.652 0.75 356.716 0.776326 356.763 0.823223L364.177 8.23744C364.505 8.56562 364.95 8.75 365.414 8.75H376C376.138 8.75 376.25 8.86193 376.25 9V27.5858C376.25 27.8085 375.981 27.92 375.823 27.7626L373.823 25.7626C373.495 25.4344 373.05 25.25 372.586 25.25H274.236C273.964 25.25 273.696 25.3132 273.453 25.4348L265.876 29.2236C265.841 29.241 265.803 29.25 265.764 29.25H6.41421C5.95008 29.25 5.50496 29.4344 5.17678 29.7626L1.17678 33.7626C1.01928 33.9201 0.75 33.8085 0.75 33.5858V9C0.75 8.86193 0.861928 8.75 1 8.75Z' fill='#030A17'/><path d='M1 8.75H11.5858C12.0499 8.75 12.495 8.56563 12.8232 8.23744L20.2374 0.823223C20.2843 0.776339 20.3479 0.75 20.4142 0.75H356.586C356.652 0.75 356.716 0.776326 356.763 0.823223L364.177 8.23744C364.505 8.56562 364.95 8.75 365.414 8.75H376C376.138 8.75 376.25 8.86193 376.25 9V27.5858C376.25 27.8085 375.981 27.92 375.823 27.7626L373.823 25.7626C373.495 25.4344 373.05 25.25 372.586 25.25H274.236C273.964 25.25 273.696 25.3132 273.453 25.4348L265.876 29.2236C265.841 29.241 265.803 29.25 265.764 29.25H6.41421C5.95008 29.25 5.50496 29.4344 5.17678 29.7626L1.17678 33.7626C1.01928 33.9201 0.75 33.8085 0.75 33.5858V9C0.75 8.86193 0.861928 8.75 1 8.75Z' fill='#00E0FF' fill-opacity='0.1'/><path d='M1 8.75H11.5858C12.0499 8.75 12.495 8.56563 12.8232 8.23744L20.2374 0.823223C20.2843 0.776339 20.3479 0.75 20.4142 0.75H356.586C356.652 0.75 356.716 0.776326 356.763 0.823223L364.177 8.23744C364.505 8.56562 364.95 8.75 365.414 8.75H376C376.138 8.75 376.25 8.86193 376.25 9V27.5858C376.25 27.8085 375.981 27.92 375.823 27.7626L373.823 25.7626C373.495 25.4344 373.05 25.25 372.586 25.25H274.236C273.964 25.25 273.696 25.3132 273.453 25.4348L265.876 29.2236C265.841 29.241 265.803 29.25 265.764 29.25H6.41421C5.95008 29.25 5.50496 29.4344 5.17678 29.7626L1.17678 33.7626C1.01928 33.9201 0.75 33.8085 0.75 33.5858V9C0.75 8.86193 0.861928 8.75 1 8.75Z' stroke='#00E0FF' stroke-width='1.5'/></svg>

<svg width="377" height="35" fill="none" xmlns="http://www.w3.org/2000/svg"><path d="M1 8.75h10.586c.464 0 .909-.184 1.237-.513L20.237.823a.25.25 0 0 1 .177-.073h336.172c.066 0 .13.026.177.073l7.414 7.414c.328.329.773.513 1.237.513H376a.25.25 0 0 1 .25.25v18.586a.25.25 0 0 1-.427.177l-2-2a1.749 1.749 0 0 0-1.237-.513h-98.35c-.272 0-.54.063-.783.185l-7.577 3.789a.25.25 0 0 1-.112.026H6.414c-.464 0-.909.184-1.237.513l-4 4a.25.25 0 0 1-.427-.177V9A.25.25 0 0 1 1 8.75Z" fill="#030A17"/><path d="M1 8.75h10.586c.464 0 .909-.184 1.237-.513L20.237.823a.25.25 0 0 1 .177-.073h336.172c.066 0 .13.026.177.073l7.414 7.414c.328.329.773.513 1.237.513H376a.25.25 0 0 1 .25.25v18.586a.25.25 0 0 1-.427.177l-2-2a1.749 1.749 0 0 0-1.237-.513h-98.35c-.272 0-.54.063-.783.185l-7.577 3.789a.25.25 0 0 1-.112.026H6.414c-.464 0-.909.184-1.237.513l-4 4a.25.25 0 0 1-.427-.177V9A.25.25 0 0 1 1 8.75Z" fill="#00E0FF" fill-opacity=".1"/><path d="M1 8.75h10.586c.464 0 .909-.184 1.237-.513L20.237.823a.25.25 0 0 1 .177-.073h336.172c.066 0 .13.026.177.073l7.414 7.414c.328.329.773.513 1.237.513H376a.25.25 0 0 1 .25.25v18.586a.25.25 0 0 1-.427.177l-2-2a1.749 1.749 0 0 0-1.237-.513h-98.35c-.272 0-.54.063-.783.185l-7.577 3.789a.25.25 0 0 1-.112.026H6.414c-.464 0-.909.184-1.237.513l-4 4a.25.25 0 0 1-.427-.177V9A.25.25 0 0 1 1 8.75Z" stroke="#00E0FF" stroke-width="1.5"/></svg>
